app/dist/common/images/teledyne-technologies.svg

<svg height="18" width="18" xmlns="http://www.w3.org/2000/svg"><path d="m0 0h18v18h-18z" fill="#0076c0"/><path d="m4.917 6h3.5l-2.917 3h-3.5zm3.792 4.536v-3.97l-2.709 2.837v3.97l2.709-2.836zm4.521-4.536h-3.647l2.917 3h3.5zm-3.939 4.536v-3.97l2.709 2.837v3.97l-2.709-2.836z" fill="#fff"/></svg>

<!-- by TradingView --><svg width="18" height="18" xmlns="http://www.w3.org/2000/svg"><path fill="#0076C0" d="M0 0h18v18H0z"/><path d="M4.917 6h3.5L5.5 9H2l2.917-3zM8.709 10.536v-3.97L6 9.403v3.97l2.709-2.836zM13.23 6H9.583L12.5 9H16l-2.77-3zM9.291 10.536v-3.97L12 9.403v3.97l-2.709-2.836z" fill="#fff"/></svg>
